X: 29
T: Toss The Feathers
Z: Makenzie
S: https://thesession.org/tunes/138#setting54130
R: reel
M: 4/4
L: 1/8
K: Dmix
|:D2 (3FED AD FD|ABcA GE GE|D2 (3FED AD FD|AddB cAGE|
D2 (3FED AD FD|ABcA GE E2|cABG A2 (3ABc |1 d2 ed cAGE:|2 d2 ed cAGB ||
|:Ad d2 Ad d2|Ad d2 ed^cd|eaag a3g|eaag ed^cd|
efge afge| f2ed cAAB|cABG A2 (3ABc |1 d2 ed cAGB:|2 d2 ed cAGE ||

%-------------------- TUNE SEPARATOR --------------------%

